X:15
T: Dawning Of The Day, The
M: 4/4
L: 1/16
R: polka
K: Dmaj
D2E2 |F4 F4 F4 E2F2 |A4 A4 B4 A2F2 |D4 E4 D4 D4 |
D12 A4 |B6 A2 B4 d4 |F6 E2 D4 F4 |A4 F4 d4 F4 |
E12 A4 |B6 A2 B4 d4 |F6 E2 D4 F4 |A4 F4 d4 F4 |E12 D2E2 |
F4 F4 F4 E2F2 |A4 A4 B4 A2F2 |D4 F4 E4 D4 D4 z8 |D12 z4 |]
